X:152
T:Jumping Geordie
Z:Nigel Gatherer
M:4/4
L:1/8
K:G
d|g2 dB g2 dB|g2 dB cA A2|g2 dB g2 dB|cedc BG G:|
d|BGdG eGdG|BGdB cA A2|BGdG eGdG|cedc BG G:|
<end>
<start>
